X:1
T:When the Saints Go Marching In
L:1/8
M:4/4
K:C
V:1 treble+8 nm="Soprano Recorder" snm="S. Rec."
V:1
 z2 c2 e2 f2 | g8- | g2 c2 e2 f2 | g8- | g2 c2 e2 f2 | g4 e4 | c4 e4 | d8- | d2 e2 e2 d2 | c4 c4 | %10
w: |6|* 4 5 ~5|6|* 4 5 ~5|6 5|4 5|~4|* 5 5 ~4|4 4|
w: 4 5 ~5||||||||||
 e4 g4- | g2 g2 f4- | f2 f2 e2 f2 | g4 e4 | c4 d4 | c8- | c2 z2 z4 |] %17
w: 5 6|* 6 ~5|* ~5 5 ~5|6 5|4 ~4|4||
w: |||||||

